svg/u1f91a.svg

<svg viewBox="0 0 128 128" xmlns="http://www.w3.org/2000/svg">
  <radialGradient id="a" cx="57.459" cy="33.263" gradientTransform="matrix(-1 0 0 1 128 0)" gradientUnits="userSpaceOnUse" r="87.72">
    <stop offset=".3533" stop-color="#FFCA28"/>
    <stop offset=".8723" stop-color="#FFB300"/>
  </radialGradient>
  <path d="m73.2 122.3c-25.26 0-35.37-4.38-41.59-18.03-2.11-4.62-5.03-11.76-6.12-20.46-0.5-4-0.72-8.73-0.95-13.73-0.06-1.24-0.12-2.5-0.18-3.76-0.31-6.14-2.01-12.44-2.27-13.38-0.1-0.95 0.5-1.84 1.39-2.06 0.86-0.2 2.02-0.44 3.3-0.44 3.07 0 5.23 1.34 6.61 4.11 1.51 3.01 1.9 7.28 2.21 10.71 0.3 3.28 0.5 5.44 1.48 6.61 1.11 1.32 2.26 2.02 3.33 2.02 0.65 0 1.24-0.25 1.66-0.72 0.35-0.38 0.74-1.08 0.64-2.23-0.04-1.1 0.23-33.54 0.34-45.94 0-3.75 2-7.51 6.46-7.51s6.46 3.77 6.46 7.5l0.47 34.67c0.01 0.82 0.68 1.48 1.5 1.48s1.49-0.66 1.5-1.48l0.59-46.45c0-3.75 2-7.52 6.46-7.52s6.46 3.77 6.46 7.5l0.57 46.72c0.01 0.82 0.68 1.48 1.5 1.48s1.49-0.66 1.5-1.48l0.48-37.91c0-3.75 2-7.52 6.46-7.52s6.46 3.77 6.46 7.5l0.59 38.17c0.01 0.82 0.68 1.47 1.5 1.48 0.82 0 1.48-0.65 1.5-1.47l0.49-23.02c0-3.76 2-7.53 6.46-7.53 4.75 0 5.46 4.7 5.46 7.5-0.02 0.48-2.2 54.28-3.68 62.39-1.55 8.52-7.38 22.8-29.04 22.8z" fill="url(#a)"/>
  <path d="m66.5 7.2c3.66 0 4.96 3.23 4.96 6.04l0.57 46.71c0.02 1.64 1.36 2.96 3 2.96s2.98-1.32 3-2.96l0.48-37.95c0-2.77 1.3-6 4.96-6s4.96 3.23 4.96 6.05l0.59 38.15c0.03 1.64 1.36 2.95 2.99 2.95h0.01c1.63 0 2.97-1.31 3-2.94l0.46-23.03v-0.06c0-4.43 2.67-6 4.96-6 2.62 0 3.95 2 3.96 5.94-0.76 18.75-2.49 55.78-3.65 62.18-1.46 8.06-6.99 21.57-27.57 21.57-24.83 0-34.23-4.01-40.22-17.15-2.06-4.53-4.93-11.53-5.99-20.03-0.49-3.94-0.71-8.63-0.94-13.6-0.06-1.24-0.12-2.51-0.18-3.78-0.3-6-1.89-12.14-2.28-13.54 0.01-0.17 0.11-0.33 0.24-0.36 0.78-0.19 1.83-0.4 2.96-0.4 2.51 0 4.14 1.01 5.27 3.28 1.38 2.76 1.76 6.87 2.06 10.18 0.33 3.56 0.54 5.91 1.83 7.44 1.43 1.69 2.93 2.55 4.48 2.55 1.08 0 2.06-0.43 2.77-1.21 0.76-0.83 1.12-1.99 1.03-3.28-0.03-1.73 0.19-28.29 0.34-45.92 0-2.77 1.3-6 4.96-6s4.96 3.23 4.96 6.04l0.47 34.65c0.02 1.64 1.36 2.96 3 2.96s2.98-1.32 3-2.96l0.59-46.48c0.01-4.43 2.68-6 4.97-6m0-3c-4.95 0-7.96 4.03-7.96 9l-0.59 46.44-0.47-34.65c0-4.97-3.01-9-7.96-9s-7.96 4.03-7.96 9c0 0-0.4 45.4-0.34 46.09 0.08 0.83-0.24 1.31-0.8 1.31-0.54 0-1.32-0.45-2.19-1.48-1.56-1.86-0.61-11.25-3.5-17.03-2-4-5.24-4.94-7.95-4.94-1.46 0-2.77 0.27-3.65 0.48-1.7 0.4-2.77 2.09-2.52 3.82 0 0 1.93 6.74 2.25 13.16 0.32 6.41 0.51 12.54 1.14 17.6 1 8 3.47 14.83 6.24 20.9 6.79 14.89 18.02 18.9 42.95 18.9 21.22 0 28.6-13.45 30.52-24.04 1.51-8.3 3.7-62.65 3.7-62.65 0-4.97-2.01-9-6.96-9s-7.96 4.03-7.96 9l-0.46 23.03-0.59-38.15c0-4.97-3.01-9-7.96-9s-7.96 4.03-7.96 9l-0.48 37.91-0.58-46.7c0-4.98-3.01-9-7.96-9z" fill="#EDA600"/>
  <g fill="#EDA600">
    <path d="m52.07 71.1c0.37-1.05 1.61-1.43 2.27-0.53 0.25 0.34 0.46 0.71 0.63 1.09 0.47 1.07 0.71 2.24 0.67 3.38-0.03 1.14-0.29 2.26-0.77 3.28-0.18 0.37-0.38 0.73-0.62 1.07-0.64 0.92-1.68 0.44-2.28-0.51-0.45-0.7-0.54-5.97 0.1-7.78z"/>
    <path d="m66.29 70.19c0.41-1.32 1.91-1.6 2.6-0.4 0.32 0.55 1.54 2.18 1.54 5.2 0 2.97-1.06 4.54-1.65 5.21-0.91 1.03-2.17 0.93-2.6-0.38-0.47-1.41-0.55-7.48 0.11-9.63z"/>
    <path d="m81.58 70.57c0.4-1.16 1.81-1.46 2.43-0.4 0.35 0.6 1.32 1.83 1.32 4.86 0 1.97-1.04 4.31-1.4 4.79-0.74 0.97-1.92 0.74-2.43-0.37-0.5-1.07-0.42-7.45 0.08-8.88z"/>
    <path d="m94.95 71.1c0.36-1.05 1.61-1.43 2.27-0.53 0.25 0.34 1.3 1.43 1.3 4.46 0 1.96-1.15 4.01-1.39 4.35-0.64 0.92-1.89 0.55-2.28-0.51-0.43-1.12-0.43-6.2 0.1-7.77z"/>
  </g>
</svg>

<svg viewBox="0 0 128 128" xmlns="http://www.w3.org/2000/svg">
  <defs>
    <radialGradient id="a" cx="-70.541" cy="33.263" gradientTransform="matrix(-1 0 0 1 0 0)" gradientUnits="userSpaceOnUse" r="87.72">
      <stop offset=".3533" stop-color="#FFCA28"/>
      <stop offset=".8723" stop-color="#FFB300"/>
    </radialGradient>
  </defs>
  <path d="M73.2,122.3 C47.94,122.3 37.83,117.92 31.61,104.27 C29.5,99.65 26.58,92.51 25.49,83.81 C24.99,79.81 24.77,75.08 24.54,70.08 C24.48,68.84 24.42,67.58 24.36,66.32 C24.05,60.18 22.35,53.88 22.09,52.94 C21.99,51.99 22.59,51.1 23.48,50.88 C24.34,50.68 25.5,50.44 26.78,50.44 C29.85,50.44 32.01,51.78 33.39,54.55 C34.9,57.56 35.29,61.83 35.6,65.26 C35.9,68.54 36.1,70.7 37.08,71.87 C38.19,73.19 39.34,73.89 40.41,73.89 C41.06,73.89 41.65,73.64 42.07,73.17 C42.42,72.79 42.81,72.09 42.71,70.94 C42.67,69.84 42.94,37.4 43.05,25 C43.05,21.25 45.05,17.49 49.51,17.49 C53.97,17.49 55.97,21.26 55.97,24.99 L56.44,59.66 C56.45,60.48 57.12,61.14 57.94,61.14 C58.76,61.14 59.43,60.48 59.44,59.66 L60.03,13.21 C60.03,9.46 62.03,5.69 66.49,5.69 C70.95,5.69 72.95,9.46 72.95,13.19 L73.52,59.91 C73.53,60.73 74.2,61.39 75.02,61.39 C75.84,61.39 76.51,60.73 76.52,59.91 L77,22 C77,18.25 79,14.48 83.46,14.48 C87.92,14.48 89.92,18.25 89.92,21.98 L90.51,60.15 C90.52,60.97 91.19,61.62 92.01,61.63 C92.83,61.63 93.49,60.98 93.51,60.16 L94,37.14 C94,33.38 96,29.61 100.46,29.61 C105.21,29.61 105.92,34.31 105.92,37.11 C105.9,37.59 103.72,91.39 102.24,99.5 C100.69,108.02 94.86,122.3 73.2,122.3 Z" fill="url(#a)"/>
  <path d="M66.5,7.2 C70.16,7.2 71.46,10.43 71.46,13.24 L72.03,59.95 C72.05,61.59 73.39,62.91 75.03,62.91 C76.67,62.91 78.01,61.59 78.03,59.95 L78.51,22 C78.51,19.23 79.81,16 83.47,16 C87.13,16 88.43,19.23 88.43,22.05 L89.02,60.2 C89.05,61.84 90.38,63.15 92.01,63.15 L92.02,63.15 C93.65,63.15 94.99,61.84 95.02,60.21 L95.48,37.18 L95.48,37.12 C95.48,32.69 98.15,31.12 100.44,31.12 C103.06,31.12 104.39,33.12 104.4,37.06 C103.64,55.81 101.91,92.84 100.75,99.24 C99.29,107.3 93.76,120.81 73.18,120.81 C48.35,120.81 38.95,116.8 32.96,103.66 C30.9,99.13 28.03,92.13 26.97,83.63 C26.48,79.69 26.26,75 26.03,70.03 C25.97,68.79 25.91,67.52 25.85,66.25 C25.55,60.25 23.96,54.11 23.57,52.71 C23.58,52.54 23.68,52.38 23.81,52.35 C24.59,52.16 25.64,51.95 26.77,51.95 C29.28,51.95 30.91,52.96 32.04,55.23 C33.42,57.99 33.8,62.1 34.1,65.41 C34.43,68.97 34.64,71.32 35.93,72.85 C37.36,74.54 38.86,75.4 40.41,75.4 C41.49,75.4 42.47,74.97 43.18,74.19 C43.94,73.36 44.3,72.2 44.21,70.91 C44.18,69.18 44.4,42.62 44.55,24.99 C44.55,22.22 45.85,18.99 49.51,18.99 C53.17,18.99 54.47,22.22 54.47,25.03 L54.94,59.68 C54.96,61.32 56.3,62.64 57.94,62.64 C59.58,62.64 60.92,61.32 60.94,59.68 L61.53,13.2 C61.54,8.77 64.21,7.2 66.5,7.2 M66.5,4.2 C61.55,4.2 58.54,8.23 58.54,13.2 L57.95,59.64 L57.48,24.99 C57.48,20.02 54.47,15.99 49.52,15.99 C44.57,15.99 41.56,20.02 41.56,24.99 C41.56,24.99 41.16,70.39 41.22,71.08 C41.3,71.91 40.98,72.39 40.42,72.39 C39.88,72.39 39.1,71.94 38.23,70.91 C36.67,69.05 37.62,59.66 34.73,53.88 C32.73,49.88 29.49,48.94 26.78,48.94 C25.32,48.94 24.01,49.21 23.13,49.42 C21.43,49.82 20.36,51.51 20.61,53.24 C20.61,53.24 22.54,59.98 22.86,66.4 C23.18,72.81 23.37,78.94 24,84 C25,92 27.47,98.83 30.24,104.9 C37.03,119.79 48.26,123.8 73.19,123.8 C94.41,123.8 101.79,110.35 103.71,99.76 C105.22,91.46 107.41,37.11 107.41,37.11 C107.41,32.14 105.4,28.11 100.45,28.11 C95.5,28.11 92.49,32.14 92.49,37.11 L92.03,60.14 L91.44,21.99 C91.44,17.02 88.43,12.99 83.48,12.99 C78.53,12.99 75.52,17.02 75.52,21.99 L75.04,59.9 L74.46,13.2 C74.46,8.22 71.45,4.2 66.5,4.2 Z" fill="#EDA600"/>
  <path d="M52.07,71.1 C52.44,70.05 53.68,69.67 54.34,70.57 C54.59,70.91 54.8,71.28 54.97,71.66 C55.44,72.73 55.68,73.9 55.64,75.04 C55.61,76.18 55.35,77.3 54.87,78.32 C54.69,78.69 54.49,79.05 54.25,79.39 C53.61,80.31 52.57,79.83 51.97,78.88 C51.52,78.18 51.43,72.91 52.07,71.1 Z" fill="#EDA600"/>
  <path d="M66.29,70.19 C66.7,68.87 68.2,68.59 68.89,69.79 C69.21,70.34 70.43,71.97 70.43,74.99 C70.43,77.96 69.37,79.53 68.78,80.2 C67.87,81.23 66.61,81.13 66.18,79.82 C65.71,78.41 65.63,72.34 66.29,70.19 Z" fill="#EDA600"/>
  <path d="M81.58,70.57 C81.98,69.41 83.39,69.11 84.01,70.17 C84.36,70.77 85.33,72 85.33,75.03 C85.33,77 84.29,79.34 83.93,79.82 C83.19,80.79 82.01,80.56 81.5,79.45 C81,78.38 81.08,72 81.58,70.57 Z" fill="#EDA600"/>
  <path d="M94.95,71.1 C95.31,70.05 96.56,69.67 97.22,70.57 C97.47,70.91 98.52,72 98.52,75.03 C98.52,76.99 97.37,79.04 97.13,79.38 C96.49,80.3 95.24,79.93 94.85,78.87 C94.42,77.75 94.42,72.67 94.95,71.1 Z" fill="#EDA600"/>
</svg>
